X:152
T:West Hornpipe TS.152
T:Fisher’s Hornpipe,aka TS.152
M:C
L:1/8
Q:1/2=90
S:Thomas Sands’ MS,1810,Lincolnshire
R:.hornpipe
O:England;Lincolnshire
Z:vmp.Ruairidh Greig, 2011
K:F
fcAc BdcB|AcAc BdcB|AFAF BGBG|AFAF GEDC|
fcAc BdcB|AcAc BdcB|Acfa bgfe|f2f2f2″rest added”z2:|
|:gece gabg|afdf fgaf|gece gabg|afedd2c2|
dBFB defd|cAFA cfef|dfed cBAG|F2F2F2″q rest in ms”z2:|]

